icons/circle/48/desktop-environment-mate.svg

<svg viewBox="0 0 48 48" xmlns="http://www.w3.org/2000/svg">
 <defs>
  <linearGradient id="linearGradient3764" x1="1" x2="47" gradientTransform="matrix(0 -1 1 0 -1.5e-6 48)" gradientUnits="userSpaceOnUse">
   <stop style="stop-color:#a3ce30" offset="0"/>
   <stop style="stop-color:#abd240" offset="1"/>
  </linearGradient>
 </defs>
 <path d="m36.31 5c5.859 4.062 9.688 10.831 9.688 18.5 0 12.426-10.07 22.5-22.5 22.5-7.669 0-14.438-3.828-18.5-9.688 1.037 1.822 2.306 3.499 3.781 4.969 4.085 3.712 9.514 5.969 15.469 5.969 12.703 0 23-10.298 23-23 0-5.954-2.256-11.384-5.969-15.469-1.469-1.475-3.147-2.744-4.969-3.781zm4.969 3.781c3.854 4.113 6.219 9.637 6.219 15.719 0 12.703-10.297 23-23 23-6.081 0-11.606-2.364-15.719-6.219 4.16 4.144 9.883 6.719 16.219 6.719 12.703 0 23-10.298 23-23 0-6.335-2.575-12.06-6.719-16.219z" style="opacity:.05"/>
 <path d="m41.28 8.781c3.712 4.085 5.969 9.514 5.969 15.469 0 12.703-10.297 23-23 23-5.954 0-11.384-2.256-15.469-5.969 4.113 3.854 9.637 6.219 15.719 6.219 12.703 0 23-10.298 23-23 0-6.081-2.364-11.606-6.219-15.719z" style="opacity:.1"/>
 <path d="m31.25 2.375c8.615 3.154 14.75 11.417 14.75 21.13 0 12.426-10.07 22.5-22.5 22.5-9.708 0-17.971-6.135-21.12-14.75a23 23 0 0 0 44.875-7 23 23 0 0 0-16-21.875z" style="opacity:.2"/>
 <path d="m24 1c12.703 0 23 10.297 23 23s-10.297 23-23 23-23-10.297-23-23 10.297-23 23-23z" style="fill:url(#linearGradient3764)"/>
 <path d="m25 13a12 12 0 0 0-9.711 4.975l1.721 1.031a10 10 0 0 1 7.99-4.006 10 10 0 0 1 10 10 10 10 0 0 1-10 10 10 10 0 0 1-7.99-4.004l-1.721 1.031a12 12 0 0 0 9.711 4.973 12 12 0 0 0 12-12 12 12 0 0 0-12-12m-12 5v14l12-7-12-7zm12 0a7 7 0 0 0-5.402 2.559l1.742 1.045a5 5 0 0 1 3.66-1.604 5 5 0 0 1 5 5 5 5 0 0 1-5 5 5 5 0 0 1-3.662-1.604l-1.742 1.047a7 7 0 0 0 5.404 2.557 7 7 0 0 0 7-7 7 7 0 0 0-7-7" style="opacity:.1"/>
 <path d="m24 12a12 12 0 0 0-9.711 4.975l1.721 1.035a10 10 0 0 1 7.99-4.01 10 10 0 0 1 10 10 10 10 0 0 1-10 10 10 10 0 0 1-7.99-4.004l-1.723 1.034a12 12 0 0 0 9.713 4.97 12 12 0 0 0 12-12 12 12 0 0 0-12-12zm-12 5v14l12-7-12-7zm12 0a7 7 0 0 0-5.402 2.559l1.742 1.045a5 5 0 0 1 3.66-1.604 5 5 0 0 1 5 5 5 5 0 0 1-5 5 5 5 0 0 1-3.662-1.604l-1.742 1.047a7 7 0 0 0 5.404 2.557 7 7 0 0 0 7-7 7 7 0 0 0-7-7z" style="fill:#f9f9f9"/>
 <path d="m40.03 7.531c3.712 4.084 5.969 9.514 5.969 15.469 0 12.703-10.297 23-23 23-5.954 0-11.384-2.256-15.469-5.969 4.178 4.291 10.01 6.969 16.469 6.969 12.703 0 23-10.298 23-23 0-6.462-2.677-12.291-6.969-16.469z" style="opacity:.1"/>
</svg>

<svg xmlns="http://www.w3.org/2000/svg" viewBox="0 0 48 48">
 <defs>
  <linearGradient id="linearGradient3764" x1="1" x2="47" gradientUnits="userSpaceOnUse" gradientTransform="matrix(0,-1,1,0,-1.5e-6,47.999998)">
   <stop style="stop-color:#a3ce30;stop-opacity:1"/>
   <stop offset="1" style="stop-color:#abd240;stop-opacity:1"/>
  </linearGradient>
 </defs>
 <g>
  <path d="m 36.31 5 c 5.859 4.062 9.688 10.831 9.688 18.5 c 0 12.426 -10.07 22.5 -22.5 22.5 c -7.669 0 -14.438 -3.828 -18.5 -9.688 c 1.037 1.822 2.306 3.499 3.781 4.969 c 4.085 3.712 9.514 5.969 15.469 5.969 c 12.703 0 23 -10.298 23 -23 c 0 -5.954 -2.256 -11.384 -5.969 -15.469 c -1.469 -1.475 -3.147 -2.744 -4.969 -3.781 z m 4.969 3.781 c 3.854 4.113 6.219 9.637 6.219 15.719 c 0 12.703 -10.297 23 -23 23 c -6.081 0 -11.606 -2.364 -15.719 -6.219 c 4.16 4.144 9.883 6.719 16.219 6.719 c 12.703 0 23 -10.298 23 -23 c 0 -6.335 -2.575 -12.06 -6.719 -16.219 z" style="opacity:0.05"/>
  <path d="m 41.28 8.781 c 3.712 4.085 5.969 9.514 5.969 15.469 c 0 12.703 -10.297 23 -23 23 c -5.954 0 -11.384 -2.256 -15.469 -5.969 c 4.113 3.854 9.637 6.219 15.719 6.219 c 12.703 0 23 -10.298 23 -23 c 0 -6.081 -2.364 -11.606 -6.219 -15.719 z" style="opacity:0.1"/>
  <path d="m 31.25 2.375 c 8.615 3.154 14.75 11.417 14.75 21.13 c 0 12.426 -10.07 22.5 -22.5 22.5 c -9.708 0 -17.971 -6.135 -21.12 -14.75 a 23 23 0 0 0 44.875 -7 a 23 23 0 0 0 -16 -21.875 z" style="opacity:0.2"/>
 </g>
 <g>
  <path d="m 24 1 c 12.703 0 23 10.297 23 23 c 0 12.703 -10.297 23 -23 23 -12.703 0 -23 -10.297 -23 -23 0 -12.703 10.297 -23 23 -23 z" style="fill:url(#linearGradient3764);fill-opacity:1"/>
 </g>
 <g>
  <g>
   <g transform="translate(1,1)">
    <g style="opacity:0.1">
     <!-- color: #abd240 -->
    </g>
   </g>
  </g>
 </g>
 <path d="m 25 13 a 12 12 0 0 0 -9.711 4.975 l 1.721 1.031 A 10 10 0 0 1 25 15 10 10 0 0 1 35 25 10 10 0 0 1 25 35 10 10 0 0 1 17.01 30.996 l -1.721 1.031 A 12 12 0 0 0 25 37 12 12 0 0 0 37 25 12 12 0 0 0 25 13 m -12 5 0 14 12 -7 -12 -7 z m 12 0 a 7 7 0 0 0 -5.402 2.559 l 1.742 1.045 A 5 5 0 0 1 25 20 a 5 5 0 0 1 5 5 5 5 0 0 1 -5 5 5 5 0 0 1 -3.662 -1.604 l -1.742 1.047 A 7 7 0 0 0 25 32 7 7 0 0 0 32 25 7 7 0 0 0 25 18" style="fill:#000;opacity:0.1;fill-opacity:1;stroke:none"/>
 <path d="M 24 12 A 12 12 0 0 0 14.289 16.975 L 16.01 18.01 A 10 10 0 0 1 24 14 A 10 10 0 0 1 34 24 A 10 10 0 0 1 24 34 A 10 10 0 0 1 16.01 29.996 L 14.287 31.03 A 12 12 0 0 0 24 36 A 12 12 0 0 0 36 24 A 12 12 0 0 0 24 12 z M 12 17 L 12 31 L 24 24 L 12 17 z M 24 17 A 7 7 0 0 0 18.598 19.559 L 20.34 20.604 A 5 5 0 0 1 24 19 A 5 5 0 0 1 29 24 A 5 5 0 0 1 24 29 A 5 5 0 0 1 20.338 27.396 L 18.596 28.443 A 7 7 0 0 0 24 31 A 7 7 0 0 0 31 24 A 7 7 0 0 0 24 17 z" style="fill:#f9f9f9;opacity:1;fill-opacity:1;stroke:none"/>
 <g>
  <g>
   <!-- color: #abd240 -->
  </g>
 </g>
 <g>
  <path d="m 40.03 7.531 c 3.712 4.084 5.969 9.514 5.969 15.469 0 12.703 -10.297 23 -23 23 c -5.954 0 -11.384 -2.256 -15.469 -5.969 4.178 4.291 10.01 6.969 16.469 6.969 c 12.703 0 23 -10.298 23 -23 0 -6.462 -2.677 -12.291 -6.969 -16.469 z" style="opacity:0.1"/>
 </g>
</svg>
